X: 10322
M: 3/8
L: 1/16
K: D
f4 ge | dfbafd | ceagec | dABcde |\
f4 ge | dfbafd | ceagec | d4 ::\
fd |\
ceagec | dfbafd | ceagec |
dABcde |\
f4 ge | dfbafd | ceagec | d4 :: Bc |\
d3edc | Bdgdbg | fdafc'f | gbagfe |\
d3edc | Bdgdbd | fdafc'f | "^D.C."g4 :|


